icons/device.svg

<?xml version="1.0" encoding="UTF-8" standalone="no"?>
<svg
   xmlns:dc="http://purl.org/dc/elements/1.1/"
   xmlns:cc="http://creativecommons.org/ns#"
   xmlns:rdf="http://www.w3.org/1999/02/22-rdf-syntax-ns#"
   xmlns:svg="http://www.w3.org/2000/svg"
   xmlns="http://www.w3.org/2000/svg"
   xmlns:sodipodi="http://sodipodi.sourceforge.net/DTD/sodipodi-0.dtd"
   xmlns:inkscape="http://www.inkscape.org/namespaces/inkscape"
   viewBox="0 0 22 22"
   id="svg"
   version="1.1"
   width="100%"
   height="100%"
   sodipodi:docname="device.svg"
   inkscape:version="0.92.4 (5da689c313, 2019-01-14)">
  <sodipodi:namedview
     pagecolor="#ffffff"
     bordercolor="#666666"
     borderopacity="1"
     objecttolerance="10"
     gridtolerance="10"
     guidetolerance="10"
     inkscape:pageopacity="0"
     inkscape:pageshadow="2"
     inkscape:window-width="1920"
     inkscape:window-height="1017"
     id="namedview19"
     showgrid="false"
     inkscape:zoom="5.3636364"
     inkscape:cx="-7.9016005"
     inkscape:cy="29.533217"
     inkscape:window-x="0"
     inkscape:window-y="0"
     inkscape:window-maximized="1"
     inkscape:current-layer="svg"
     inkscape:lockguides="true" />
  <defs
     id="defs81">
    <style
       id="current-color-scheme"
       type="text/css" />
  </defs>
  <metadata
     id="metadata34">
    <rdf:RDF>
      <cc:Work
         rdf:about="">
        <dc:format>image/svg+xml</dc:format>
        <dc:type
           rdf:resource="http://purl.org/dc/dcmitype/StillImage" />
        <dc:title />
      </cc:Work>
    </rdf:RDF>
  </metadata>
  <g
     id="22-22-device-notifier"
     transform="translate(-1,-1)">
    <rect
       y="1"
       x="1"
       height="22"
       width="22"
       id="rect3011-4"
       style="fill:#ffffff;fill-opacity:0;stroke:none" />
    <path
       style="color:#7b7c7e;fill:#1a1a1a;fill-opacity:1;stroke:none;stroke-width:0.93819201"
       d="m 7.2921698,4.1552203 0.027505,4.9376549 H 5.559322 V 20.09322 H 17.881795 V 9.0928752 h -1.760354 l 0.02751,-4.9376549 z m 0.9076821,0.9375294 7.0414131,0.031251 V 9.0928752 L 8.1998519,9.0616242 Z m 0.852671,1.0000314 0.02751,2.0000627 H 10.840386 V 6.1240321 Z m 5.3360711,0 -1.84287,0.031251 v 1.9688117 h 1.815365 z m -2.723046,5.0001569 3.575717,4.000125 H 8.1998519 Z m -3.4656961,5.000157 h 7.0414131 v 1.000031 H 8.1998519 Z"
       id="path3783"
       class="ColorScheme-Text"
       inkscape:connector-curvature="0" />
  </g>
  <g
     id="g2991"
     transform="translate(25,-2)">
    <rect
       style="fill:#ffffff;fill-opacity:0;stroke:none"
       id="rect2993"
       width="24"
       height="24"
       x="0"
       y="0" />
    <g
       id="g2995"
       transform="translate(-508,-1036.3622)">
      <path
         class="ColorScheme-Text"
         id="path2997"
         transform="translate(508,1036.3622)"
         d="m 2,2 0,20 11,0 0,-3 -4,0 0,-6 4,0 0,-2 -4,0 0,-6 4,0 0,-3 z m 20,0.78125 c 0,0 -0.47953,1.5907 -1.890625,3.09375 C 18.894025,7.0386 18.83249,7.5 15.90625,7.5 l 0,-1.5 L 10,6 l 0,4 5.90625,0 0,-1.5 c 3.07376,0 3.591795,-0.66275 4.890625,-1.90625 C 22.165585,5.28315 22.90625,3.1875 22.90625,3.1875 z M 14,12 l 0,0.5 0,1.5 -4,0 0,4 4,0 0,1.5 0,0.5 0.5,0 7,0 0.5,0 0,-0.5 0,-7 0,-0.5 -0.5,0 -7,0 z m 1,1 6,0 0,6 -6,0 z"
         style="fill:#1a1a1a;fill-opacity:1;stroke:none" />
    </g>
  </g>
  <g
     transform="matrix(1.4545455,0,0,1.4545455,-1.4545455,-35.454545)"
     id="device-notifier">
    <rect
       style="fill:#ffffff;fill-opacity:0;stroke:none"
       id="rect3817"
       width="22"
       height="22"
       x="1"
       y="1" />
    <path
       id="path3819"
       d="m 7.1562498,3.7499996 0.03125,5.4999998 -0.6875,0 -1.3749999,1.3749996 0,8.25 1.3749999,1.375 10.9999992,0 1.375,-1.375 1e-6,-8.25 -1.375001,-1.3749996 -0.687499,0 0.03125,-5.4999998 z m 0.71875,0.6562499 8.2500002,0.03125 0,4.8124999 -8.2500002,-0.03125 z m 1.3749997,1.4062501 0,1.3749999 2.0625005,0 0,-1.3749999 z m 5.5000005,-10e-8 -2.0625,0 0,1.3749999 2.0625,0 z M 12,11.999999 l 2.75,2.75 -5.4999999,0 z m -2.7499998,4.125 5.4999998,0 0,0.6875 -5.5000003,0 z"
       style="fill:#1a1a1a;fill-opacity:1;stroke:none"
       class="ColorScheme-Text" />
  </g>
  <g
     transform="translate(-4,22)"
     id="16-16-device-notifier">
    <rect
       style="fill:#ffffff;fill-opacity:0;stroke:none"
       id="rect3823"
       width="16"
       height="16"
       x="4"
       y="4" />
    <path
       id="path3825"
       d="M 6.96875,6.0625 7,11 l -1,0 0,7 11,0 0,-7 -0.9375,-0.03125 0.03125,-4.9375 z M 8,7 l 7.0625,0 0,3.96875 -7.0625,0 z M 8.96875,8 9,10 11,10 11,8.03125 z M 14.09375,7.96875 12,8 l 0,1.96875 2.0625,0 z"
       style="fill:#1a1a1a;fill-opacity:1;stroke:none"
       class="ColorScheme-Text" />
  </g>
</svg>

<?xml version="1.0" encoding="UTF-8" standalone="no"?>
<svg
   xmlns:dc="http://purl.org/dc/elements/1.1/"
   xmlns:cc="http://creativecommons.org/ns#"
   xmlns:rdf="http://www.w3.org/1999/02/22-rdf-syntax-ns#"
   xmlns:svg="http://www.w3.org/2000/svg"
   xmlns="http://www.w3.org/2000/svg"
   xmlns:sodipodi="http://sodipodi.sourceforge.net/DTD/sodipodi-0.dtd"
   xmlns:inkscape="http://www.inkscape.org/namespaces/inkscape"
   viewBox="0 0 22 22"
   id="svg"
   version="1.1"
   width="100%"
   height="100%"
   sodipodi:docname="device.svg"
   inkscape:version="1.0.1 (3bc2e813f5, 2020-09-07)">
  <sodipodi:namedview
     pagecolor="#ffffff"
     bordercolor="#666666"
     borderopacity="1"
     objecttolerance="10"
     gridtolerance="10"
     guidetolerance="10"
     inkscape:pageopacity="0"
     inkscape:pageshadow="2"
     inkscape:window-width="1920"
     inkscape:window-height="1014"
     id="namedview19"
     showgrid="false"
     inkscape:zoom="5.3636364"
     inkscape:cx="-7.9016005"
     inkscape:cy="29.533217"
     inkscape:window-x="0"
     inkscape:window-y="0"
     inkscape:window-maximized="1"
     inkscape:current-layer="svg"
     inkscape:lockguides="true"
     inkscape:document-rotation="0" />
  <defs
     id="defs81">
    <style
       id="current-color-scheme"
       type="text/css" />
  </defs>
  <metadata
     id="metadata34">
    <rdf:RDF>
      <cc:Work
         rdf:about="">
        <dc:format>image/svg+xml</dc:format>
        <dc:type
           rdf:resource="http://purl.org/dc/dcmitype/StillImage" />
        <dc:title />
      </cc:Work>
    </rdf:RDF>
  </metadata>
  <g
     id="22-22-device-notifier"
     transform="translate(-1,-1)">
    <rect
       y="1"
       x="1"
       height="22"
       width="22"
       id="rect3011-4"
       style="fill:#ffffff;fill-opacity:0;stroke:none" />
    <path
       style="color:#7b7c7e;fill:#232629;fill-opacity:1;stroke:none;stroke-width:0.938192"
       d="m 7.2921698,4.1552203 0.027505,4.9376549 H 5.559322 V 20.09322 H 17.881795 V 9.0928752 h -1.760354 l 0.02751,-4.9376549 z m 0.9076821,0.9375294 7.0414131,0.031251 V 9.0928752 L 8.1998519,9.0616242 Z m 0.852671,1.0000314 0.02751,2.0000627 H 10.840386 V 6.1240321 Z m 5.3360711,0 -1.84287,0.031251 v 1.9688117 h 1.815365 z m -2.723046,5.0001569 3.575717,4.000125 H 8.1998519 Z m -3.4656961,5.000157 h 7.0414131 v 1.000031 H 8.1998519 Z"
       id="path3783"
       class="ColorScheme-Text"
       inkscape:connector-curvature="0" />
  </g>
  <g
     id="g2991"
     transform="translate(25,-2)">
    <rect
       style="fill:#ffffff;fill-opacity:0;stroke:none"
       id="rect2993"
       width="24"
       height="24"
       x="0"
       y="0" />
    <g
       id="g2995"
       transform="translate(-508,-1036.3622)">
      <path
         class="ColorScheme-Text"
         id="path2997"
         transform="translate(508,1036.3622)"
         d="M 2,2 V 22 H 13 V 19 H 9 v -6 h 4 V 11 H 9 V 5 h 4 V 2 Z m 20,0.78125 c 0,0 -0.47953,1.5907 -1.890625,3.09375 C 18.894025,7.0386 18.83249,7.5 15.90625,7.5 V 6 H 10 v 4 h 5.90625 V 8.5 c 3.07376,0 3.591795,-0.66275 4.890625,-1.90625 C 22.165585,5.28315 22.90625,3.1875 22.90625,3.1875 Z M 14,12 v 0.5 1.5 h -4 v 4 h 4 v 1.5 0.5 h 0.5 7 0.5 v -0.5 -7 -0.5 h -0.5 -7 z m 1,1 h 6 v 6 h -6 z"
         style="fill:#232629;fill-opacity:1;stroke:none" />
    </g>
  </g>
  <g
     transform="matrix(1.4545455,0,0,1.4545455,-1.4545455,-35.454545)"
     id="device-notifier">
    <rect
       style="fill:#ffffff;fill-opacity:0;stroke:none"
       id="rect3817"
       width="22"
       height="22"
       x="1"
       y="1" />
    <path
       id="path3819"
       d="m 7.1562498,3.7499996 0.03125,5.4999998 h -0.6875 L 5.1249999,10.624999 v 8.25 l 1.3749999,1.375 H 17.499999 l 1.375,-1.375 1e-6,-8.25 -1.375001,-1.3749996 H 16.8125 l 0.03125,-5.4999998 z m 0.71875,0.6562499 8.2500002,0.03125 V 9.2499994 L 7.8749998,9.2187494 Z M 9.2499995,5.8124996 V 7.1874995 H 11.3125 V 5.8124996 Z M 14.75,5.8124995 H 12.6875 V 7.1874994 H 14.75 Z M 12,11.999999 l 2.75,2.75 H 9.2500001 Z m -2.7499998,4.125 H 14.75 v 0.6875 H 9.2499997 Z"
       style="fill:#232629;fill-opacity:1;stroke:none"
       class="ColorScheme-Text" />
  </g>
  <g
     transform="translate(-4,22)"
     id="16-16-device-notifier">
    <rect
       style="fill:#ffffff;fill-opacity:0;stroke:none"
       id="rect3823"
       width="16"
       height="16"
       x="4"
       y="4" />
    <path
       id="path3825"
       d="M 6.96875,6.0625 7,11 H 6 v 7 h 11 v -7 l -0.9375,-0.03125 0.03125,-4.9375 z M 8,7 h 7.0625 v 3.96875 H 8 Z M 8.96875,8 9,10 h 2 V 8.03125 Z M 14.09375,7.96875 12,8 v 1.96875 h 2.0625 z"
       style="fill:#232629;fill-opacity:1;stroke:none"
       class="ColorScheme-Text" />
  </g>
</svg>
